%
(Header)
(Generated by gcodetools from Inkscape.)
(Using default header. To add your own header create file "header" in the output dir.)
M3
(Header end.)
G21 (All units in mm)

(Start cutting path id: path5455)
(Change tool to Cylindrical cutter)

G00 Z5.000000
G00 X154.668760 Y13.069891

G01 Z-1.000000 F100.0(Penetrate)
G02 X147.390329 Y14.647254 Z-1.000000 I12.931640 J77.251621 F400.000000
G02 X132.584110 Y18.967965 Z-1.000000 I86.684318 J324.579323
G02 X118.106698 Y24.239693 Z-1.000000 I55.006638 J173.576279
G02 X101.621578 Y31.750766 Z-1.000000 I96.057083 J232.669858
G02 X85.956376 Y40.749922 Z-1.000000 I69.767951 J139.582058
G02 X70.812749 Y51.907250 Z-1.000000 I92.615550 J141.561054
G02 X56.907925 Y64.602844 Z-1.000000 I121.526074 J147.063606
G02 X44.944925 Y77.979681 Z-1.000000 I123.028741 J122.063188
G02 X34.365978 Y92.482237 Z-1.000000 I146.798953 J118.192787
G02 X26.042264 Y106.669555 Z-1.000000 I132.141990 J87.063263
G02 X18.987308 Y121.563685 Z-1.000000 I201.985391 J104.793073
G02 X12.745588 Y137.588065 Z-1.000000 I227.614235 J97.886745
G02 X8.462630 Y154.135099 Z-1.000000 I96.776912 J33.877097
G02 X5.369488 Y180.601660 Z-1.000000 I245.618159 J42.119370
G02 X5.406629 Y207.219070 Z-1.000000 I206.877872 J13.020062
G02 X8.571836 Y229.315289 Z-1.000000 I145.465879 J-9.562672
G02 X14.603501 Y250.884255 Z-1.000000 I203.402986 J-45.252889
G02 X22.444050 Y270.289571 Z-1.000000 I172.361467 J-58.354541
G02 X32.091826 Y288.862256 Z-1.000000 I251.883088 J-119.051150
G02 X36.365574 Y294.793208 Z-1.000000 I29.553879 J-16.790773
G02 X41.795184 Y299.564711 Z-1.000000 I22.895803 J-20.578697
G02 X48.119084 Y302.891335 Z-1.000000 I17.068491 J-24.772981
G02 X54.839092 Y303.918989 Z-1.000000 I5.730333 J-14.986161
G02 X61.369874 Y302.072418 Z-1.000000 I-0.986385 J-15.960577
G02 X67.351731 Y298.114187 Z-1.000000 I-17.741447 J-33.310809
G02 X71.389597 Y293.974292 Z-1.000000 I-15.420395 J-19.079482
G02 X73.703945 Y288.865146 Z-1.000000 I-9.780191 J-7.508994
G02 X75.070372 Y275.424255 Z-1.000000 I-70.171073 J-13.923633
G02 X73.733816 Y261.813158 Z-1.000000 I-65.475036 J-0.441781
G02 X69.024287 Y245.978055 Z-1.000000 I-93.586757 J19.215820
G03 X64.056118 Y230.163410 Z-1.000000 I108.291787 J-42.707548
G03 X62.405382 Y218.102394 Z-1.000000 I61.081306 J-14.503393
G03 X63.760037 Y206.361059 Z-1.000000 I38.551369 J-1.500955
G03 X68.080033 Y197.490057 Z-1.000000 I25.923452 J7.136813
G03 X75.004110 Y189.973781 Z-1.000000 I38.547843 J28.563291
G03 X91.205680 Y177.220442 Z-1.000000 I128.729928 J146.868024
G02 X107.384946 Y164.541494 Z-1.000000 I-116.995177 J-165.956851
G02 X111.206878 Y159.842561 Z-1.000000 I-11.563516 J-13.309097
G02 X113.699405 Y154.213164 Z-1.000000 I-28.809261 J-16.122376
G02 X118.518205 Y138.031966 Z-1.000000 I-235.402054 J-78.911427
G03 X123.846032 Y122.123296 Z-1.000000 I119.929509 J31.318012
G03 X128.676031 Y113.382670 Z-1.000000 I40.604374 J16.732825
G02 X133.039010 Y104.511055 Z-1.000000 I-25.008250 J-17.807472
G02 X138.290766 Y81.780066 Z-1.000000 I-163.556707 J-49.760235
G03 X143.308677 Y58.924544 Z-1.000000 I201.552176 J32.272018
G03 X146.944766 Y50.927869 Z-1.000000 I27.697800 J7.769188
G03 X152.198683 Y44.053422 Z-1.000000 I49.934084 J32.718081
G03 X153.592042 Y43.426420 Z-1.000000 I1.393359 J1.234700
G03 X154.371830 Y44.216721 Z-1.000000 I0.000000 J0.779858
G03 X153.458886 Y53.369224 Z-1.000000 I-53.519947 J-0.716724
G02 X152.833489 Y63.201510 Z-1.000000 I39.808705 J7.468124
G02 X154.484877 Y70.916686 Z-1.000000 I25.931749 J-1.516216
G02 X158.659794 Y77.494354 Z-1.000000 I18.127978 J-6.892256
G02 X169.698159 Y86.675644 Z-1.000000 I47.389201 J-45.748311
G03 X180.711559 Y95.914625 Z-1.000000 I-35.053648 J52.969773
G03 X185.662741 Y103.493076 Z-1.000000 I-18.267840 J17.341400
G03 X187.722083 Y112.250274 Z-1.000000 I-24.935841 J10.484649
G03 X186.780459 Y120.959796 Z-1.000000 I-25.598638 J1.638083
G03 X183.317251 Y129.230223 Z-1.000000 I-36.835209 J-10.564283
G03 X178.134407 Y136.279122 Z-1.000000 I-31.775174 J-17.933483
G03 X171.414557 Y141.944163 Z-1.000000 I-27.630969 J-25.957700
G03 X161.132525 Y147.521947 Z-1.000000 I-37.040521 J-56.014352
G03 X150.171378 Y152.047397 Z-1.000000 I-129.095220 J-297.145778
G03 X133.274326 Y158.431204 Z-1.000000 I-274.105427 J-699.965040
G02 X116.913898 Y165.680249 Z-1.000000 I45.138605 J123.960199
G02 X107.508901 Y172.007905 Z-1.000000 I24.677463 J46.832205
G02 X100.639848 Y180.295612 Z-1.000000 I19.438993 J23.101983
G02 X98.720980 Y187.614008 Z-1.000000 I12.996431 J7.318396
G02 X100.077336 Y195.188607 Z-1.000000 I21.828426 J-0.000000
G02 X103.105631 Y199.464484 Z-1.000000 I9.491442 J-3.511802
G02 X107.898705 Y201.527871 Z-1.000000 I5.902238 J-7.111752
G02 X117.568035 Y201.212823 Z-1.000000 I3.812292 J-31.535731
G03 X123.726421 Y200.537634 Z-1.000000 I7.498528 J39.971118
G03 X127.027247 Y201.163055 Z-1.000000 I0.253407 J7.685792
G03 X129.801334 Y203.116787 Z-1.000000 I-3.284836 J7.610426
G03 X134.061011 Y208.331589 Z-1.000000 I-37.228174 J34.756736
G02 X141.681648 Y215.877026 Z-1.000000 I25.582214 J-18.216162
G02 X159.083679 Y225.777959 Z-1.000000 I62.604824 J-89.791691
G03 X176.504539 Y235.482205 Z-1.000000 I-49.939559 J110.139360
G03 X181.066159 Y240.521315 Z-1.000000 I-7.826044 J11.668716
G03 X183.118744 Y246.949708 Z-1.000000 I-16.406209 J8.780390
G03 X182.606343 Y252.608791 Z-1.000000 I-13.088143 J1.667675
G03 X179.858074 Y257.630853 Z-1.000000 I-14.195710 J-4.505437
G03 X175.404008 Y261.262523 Z-1.000000 I-11.536119 J-9.601303
G03 X169.893504 Y262.384108 Z-1.000000 I-4.630364 J-8.651897
G03 X156.649144 Y259.573574 Z-1.000000 I5.101896 J-56.653811
G02 X143.137262 Y256.169817 Z-1.000000 I-27.560264 J80.884963
G02 X134.978316 Y255.961704 Z-1.000000 I-4.819750 J28.917963
G02 X130.010846 Y257.054437 Z-1.000000 I2.834193 J24.721204
G02 X127.977115 Y258.715811 Z-1.000000 I1.150145 J3.483383
G02 X127.148035 Y261.491421 Z-1.000000 I5.525782 J3.162189
G02 X126.986090 Y269.927754 Z-1.000000 I101.348276 J6.165220
G02 X129.683748 Y281.834733 Z-1.000000 I30.653680 J-0.685849
G02 X136.602559 Y291.276249 Z-1.000000 I25.697482 J-11.575467
G02 X146.550775 Y297.976165 Z-1.000000 I29.361832 J-32.861590
G02 X153.581918 Y299.608360 Z-1.000000 I7.031144 J-14.328223
G02 X160.399079 Y297.706762 Z-1.000000 I-0.000000 J-13.170436
G02 X170.748181 Y289.223504 Z-1.000000 I-24.371094 J-40.285670
G01 X180.260335 Y278.838651 Z-1.000000
G01 X188.477356 Y290.695814 Z-1.000000
G02 X197.389360 Y301.225827 Z-1.000000 I58.929578 J-40.838330
G02 X200.654743 Y302.552980 Z-1.000000 I3.265383 J-3.353568
G02 X203.533513 Y301.196876 Z-1.000000 I-0.000000 J-3.733611
G02 X206.126495 Y295.927585 Z-1.000000 I-9.804695 J-8.097464
G02 X207.184258 Y289.241786 Z-1.000000 I-49.013519 J-11.181023
G02 X208.391055 Y270.703316 Z-1.000000 I-377.174443 J-33.861402
G01 X209.144230 Y252.104440 Z-1.000000
G01 X221.479390 Y262.681444 Z-1.000000
G03 X232.444869 Y274.318178 Z-1.000000 I-49.059124 J57.214032
G03 X241.611905 Y289.195636 Z-1.000000 I-71.698283 J54.441243
G03 X247.603546 Y305.266401 Z-1.000000 I-78.611966 J38.461101
G03 X247.457270 Y311.282901 Z-1.000000 I-10.416679 J2.756773
G03 X244.492703 Y316.664708 Z-1.000000 I-15.023541 J-4.768292
G03 X238.315432 Y322.143964 Z-1.000000 I-21.778112 J-18.330746
G03 X230.699315 Y324.993955 Z-1.000000 I-10.122131 J-15.448288
G03 X217.190286 Y325.037127 Z-1.000000 I-6.915964 J-50.498621
G02 X203.592041 Y325.404501 Z-1.000000 I-5.636699 J43.210464
G02 X187.503334 Y330.553860 Z-1.000000 I12.277564 J66.068663
G03 X171.557051 Y337.009230 Z-1.000000 I-71.047698 J-152.581312
G03 X166.333931 Y337.888420 Z-1.000000 I-5.223120 J-15.075252
G03 X161.435485 Y336.494932 Z-1.000000 I-0.000000 J-9.306351
G03 X147.307210 Y326.109940 Z-1.000000 I58.066357 J-93.799359
G02 X132.957719 Y316.318621 Z-1.000000 I-49.691636 J57.414199
G02 X124.909623 Y314.331460 Z-1.000000 I-8.048096 J15.304007
G02 X116.840259 Y316.067885 Z-1.000000 I0.000000 J19.617837
G02 X108.893302 Y321.559162 Z-1.000000 I11.051527 J24.489774
G02 X103.034128 Y329.353732 Z-1.000000 I24.564815 J24.564815
G02 X101.665600 Y334.671399 Z-1.000000 I9.647125 J5.317667
G02 X102.365174 Y340.404071 Z-1.000000 I23.838033 J0.000000
G02 X104.861137 Y347.569377 Z-1.000000 I39.940115 J-9.895368
G02 X109.032325 Y353.705504 Z-1.000000 I20.012963 J-9.118519
G02 X116.308397 Y359.457229 Z-1.000000 I24.754717 J-23.837256
G02 X124.952616 Y363.321053 Z-1.000000 I21.312253 J-36.078745
G02 X145.696188 Y368.777752 Z-1.000000 I65.009540 J-204.976396
G02 X166.943611 Y372.153604 Z-1.000000 I44.511798 J-211.601783
G02 X186.781048 Y373.223860 Z-1.000000 I19.837438 J-183.310550
G02 X206.562787 Y371.896284 Z-1.000000 I0.000000 J-148.044110
G02 X228.972005 Y367.535275 Z-1.000000 I-26.229109 J-194.535168
G02 X250.796894 Y360.745761 Z-1.000000 I-55.319751 J-216.298089
G02 X268.459271 Y352.995378 Z-1.000000 I-54.935743 J-149.193896
G02 X285.163008 Y343.306375 Z-1.000000 I-85.783804 J-167.133390
G02 X301.899760 Y331.227486 Z-1.000000 I-117.089926 J-179.877001
G02 X317.180750 Y317.457086 Z-1.000000 I-106.583718 J-133.639623
G02 X326.340548 Y306.379817 Z-1.000000 I-59.503892 J-58.529540
G02 X332.391124 Y294.050691 Z-1.000000 I-38.183618 J-26.388025
G02 X332.620922 Y286.619576 Z-1.000000 I-12.962864 J-4.119971
G02 X329.193486 Y279.948400 Z-1.000000 I-16.043750 J4.026720
G02 X322.332567 Y274.486252 Z-1.000000 I-17.248907 J14.626065
G02 X313.901192 Y272.076389 Z-1.000000 I-10.195070 J19.715099
G02 X306.093252 Y273.191729 Z-1.000000 I-1.426819 J17.898958
G03 X298.145321 Y275.060573 Z-1.000000 I-10.991345 J-28.909505
G03 X292.827592 Y274.503454 Z-1.000000 I-1.305187 J-13.199485
G03 X288.466606 Y271.816829 Z-1.000000 I3.196549 J-10.071439
G03 X285.702495 Y267.211689 Z-1.000000 I8.309691 J-8.119780
G03 X285.056316 Y261.592829 Z-1.000000 I14.064778 J-4.464060
G03 X287.052780 Y250.009926 Z-1.000000 I63.533726 J4.987353
G02 X289.113250 Y238.457105 Z-1.000000 I-65.554000 J-17.651851
G02 X288.495496 Y234.016249 Z-1.000000 I-9.870462 J-0.890346
G02 X286.051020 Y230.185857 Z-1.000000 I-10.592649 J4.064806
G02 X275.216114 Y220.311366 Z-1.000000 I-84.807827 J82.174813
G03 X264.961057 Y210.349399 Z-1.000000 I47.730749 J-59.394398
G03 X263.619700 Y206.708337 Z-1.000000 I4.271080 J-3.641061
G03 X265.309770 Y205.247794 Z-1.000000 I1.476130 J0.000000
G03 X274.618415 Y208.319427 Z-1.000000 I-4.119972 J28.126486
G02 X285.874141 Y213.190846 Z-1.000000 I34.712164 J-64.765438
G02 X292.119175 Y214.214380 Z-1.000000 I6.245034 J-18.540093
G02 X297.868439 Y212.768140 Z-1.000000 I0.000000 J-12.150699
G02 X302.542335 Y208.616186 Z-1.000000 I-6.393468 J-11.903893
G03 X305.181659 Y205.470194 Z-1.000000 I19.348063 J13.551892
G03 X306.756241 Y204.671871 Z-1.000000 I2.006123 J2.004820
G03 X308.509697 Y204.947896 Z-1.000000 I0.444223 J2.885517
G03 X312.105960 Y207.143876 Z-1.000000 I-11.372311 J22.666664
G02 X318.031933 Y210.401931 Z-1.000000 I15.552087 J-21.268888
G02 X322.618519 Y211.269760 Z-1.000000 I4.586586 J-11.686431
G02 X326.988424 Y210.142538 Z-1.000000 I0.000000 J-9.034020
G02 X332.361883 Y205.884816 Z-1.000000 I-10.084782 J-18.247154
G02 X336.631532 Y200.267268 Z-1.000000 I-30.574522 J-27.669698
G02 X337.235200 Y198.184605 Z-1.000000 I-3.290776 J-2.082663
G02 X336.332071 Y197.540811 Z-1.000000 I-0.681028 J0.000000
G02 X329.772502 Y200.759086 Z-1.000000 I9.639409 J27.941359
G03 X324.832694 Y203.561455 Z-1.000000 I-24.330169 J-37.132473
G03 X322.234643 Y204.037258 Z-1.000000 I-2.155661 J-4.439628
G03 X319.678353 Y203.165625 Z-1.000000 I0.511634 J-5.684813
G03 X314.326204 Y199.368931 Z-1.000000 I35.623768 J-55.889123
G01 X306.342632 Y193.089058 Z-1.000000
G01 X298.842449 Y202.073064 Z-1.000000
G03 X293.818727 Y207.529323 Z-1.000000 I-58.691218 J-48.997697
G03 X291.383786 Y209.050989 Z-1.000000 I-4.626614 J-4.694414
G03 X288.696980 Y209.122919 Z-1.000000 I-1.454831 J-4.126231
G03 X284.106393 Y207.268728 Z-1.000000 I7.092941 J-24.170393
G03 X276.948091 Y203.345639 Z-1.000000 I99.456221 J-189.966035
G03 X270.635169 Y199.548818 Z-1.000000 I86.815511 J-151.493557
G02 X264.266215 Y196.974861 Z-1.000000 I-10.317838 J16.363682
G02 X259.956799 Y197.322155 Z-1.000000 I-1.564174 J7.501302
G02 X257.380940 Y200.066004 Z-1.000000 I1.548120 J4.034340
G02 X256.996366 Y206.782748 Z-1.000000 I13.178753 J4.123944
G02 X260.031180 Y213.605008 Z-1.000000 I16.107680 J-3.079207
G02 X269.701106 Y223.556735 Z-1.000000 I45.146716 J-34.194391
G03 X280.167659 Y233.126187 Z-1.000000 I-69.769016 J86.818203
G03 X282.606256 Y236.960869 Z-1.000000 I-8.238631 J7.931943
G03 X283.227967 Y241.401520 Z-1.000000 I-9.288636 J3.564297
G03 X281.205825 Y252.797471 Z-1.000000 I-66.026387 J-5.838599
G02 X279.728352 Y264.064152 Z-1.000000 I41.482672 J11.170105
G02 X281.244694 Y270.082376 Z-1.000000 I12.815409 J-0.028809
G02 X285.067518 Y275.215880 Z-1.000000 I19.045806 J-10.192910
G02 X290.332939 Y279.109308 Z-1.000000 I15.935424 J-16.043698
G02 X296.442776 Y280.638833 Z-1.000000 I6.099427 J-11.396825
G02 X306.011451 Y279.096646 Z-1.000000 I-0.024649 J-30.608998
G03 X315.696065 Y277.063048 Z-1.000000 I13.899213 J42.114929
G03 X320.478251 Y277.715590 Z-1.000000 I1.002573 J10.502097
G03 X324.311364 Y280.408253 Z-1.000000 I-3.445979 J8.980114
G03 X327.078793 Y285.357144 Z-1.000000 I-10.665057 J9.212142
G03 X326.980062 Y290.881671 Z-1.000000 I-8.241796 J2.615853
G03 X320.826776 Y302.860219 Z-1.000000 I-48.370127 J-17.277634
G03 X311.731549 Y313.590516 Z-1.000000 I-59.629060 J-41.323049
G03 X294.799457 Y328.127744 Z-1.000000 I-127.194193 J-131.018825
G03 X276.279748 Y340.721322 Z-1.000000 I-132.339642 J-174.700357
G03 X258.940846 Y349.919286 Z-1.000000 I-87.419815 J-143.851790
G03 X240.618622 Y356.922847 Z-1.000000 I-63.549697 J-138.785813
G03 X216.404073 Y363.115253 Z-1.000000 I-73.432194 J-236.706429
G03 X191.703651 Y366.477244 Z-1.000000 I-38.319663 J-189.115594
G03 X171.024328 Y366.326211 Z-1.000000 I-9.372759 J-132.463033
G03 X150.421465 Y363.657392 Z-1.000000 I20.304401 J-237.606582
G03 X135.427850 Y360.128166 Z-1.000000 I22.487926 J-129.152198
G03 X121.252666 Y354.572087 Z-1.000000 I26.065784 J-87.362002
G03 X114.079355 Y349.626674 Z-1.000000 I13.178390 J-26.790368
G03 X108.889843 Y342.967427 Z-1.000000 I18.196552 J-19.532170
G03 X107.554840 Y337.773712 Z-1.000000 I9.435351 J-5.193715
G03 X108.806527 Y332.517645 Z-1.000000 I11.661446 J-0.000000
G03 X113.444080 Y326.109940 Z-1.000000 I22.309926 J11.264668
G03 X119.877380 Y321.534173 Z-1.000000 I16.776280 J16.776280
G03 X125.601824 Y320.220700 Z-1.000000 I5.724444 J11.817542
G03 X131.281046 Y321.752009 Z-1.000000 I-0.000000 J11.297024
G03 X143.195307 Y330.452136 Z-1.000000 I-35.725179 J61.431294
G02 X155.086915 Y339.622047 Z-1.000000 I64.738177 J-71.657426
G02 X161.537852 Y342.444872 Z-1.000000 I11.620064 J-17.772560
G02 X168.430596 Y342.695764 Z-1.000000 I4.036315 J-16.082008
G02 X180.015961 Y339.213278 Z-1.000000 I-8.787275 J-50.245133
G03 X191.809253 Y335.531287 Z-1.000000 I22.838183 J52.422173
G03 X216.270799 Y332.076005 Z-1.000000 I44.161557 J224.325202
G02 X239.859979 Y327.662516 Z-1.000000 I-10.493725 J-121.333142
G02 X246.453154 Y323.277637 Z-1.000000 I-3.710360 J-12.728200
G02 X250.197798 Y316.041699 Z-1.000000 I-15.695451 J-12.709404
G02 X251.841220 Y304.140881 Z-1.000000 I-42.268103 J-11.900818
G02 X249.838886 Y292.309191 Z-1.000000 I-35.957590 J-0.000000
G02 X243.489954 Y280.173980 Z-1.000000 I-44.229894 J15.411882
G02 X234.540551 Y269.228739 Z-1.000000 I-100.957766 J73.416992
G02 X222.672992 Y257.470341 Z-1.000000 I-128.461421 J117.785948
G02 X209.889919 Y247.812355 Z-1.000000 I-62.532945 J69.478397
G02 X206.731173 Y247.448345 Z-1.000000 I-1.959550 J3.117027
G02 X204.860540 Y249.726857 Z-1.000000 I0.916088 J2.659238
G02 X204.192616 Y266.029403 Z-1.000000 I85.361956 J11.662280
G03 X204.059155 Y283.249229 Z-1.000000 I-139.581037 J7.528615
G03 X202.493924 Y290.474596 Z-1.000000 I-25.706172 J-1.786506
G03 X200.488948 Y294.866455 Z-1.000000 I-31.895548 J-11.907400
G03 X199.349960 Y295.278222 Z-1.000000 I-0.802035 J-0.437348
G03 X198.032966 Y294.221915 Z-1.000000 I1.059668 J-2.670346
G03 X193.218429 Y286.793821 Z-1.000000 I170.317340 J-115.665904
G02 X185.493242 Y277.999270 Z-1.000000 I-29.919583 J18.491343
G02 X180.011632 Y276.051400 Z-1.000000 I-5.481610 J6.739117
G02 X174.321231 Y277.790907 Z-1.000000 I0.000000 J10.177180
G02 X166.912843 Y284.885260 Z-1.000000 I16.909727 J25.073580
G03 X159.467480 Y291.906260 Z-1.000000 I-23.226065 J-17.171709
G03 X153.370053 Y293.719120 Z-1.000000 I-6.097427 J-9.347700
G03 X147.178301 Y291.957710 Z-1.000000 I-0.000000 J-11.763405
G03 X138.735109 Y284.659334 Z-1.000000 I18.610040 J-30.062171
G03 X132.765113 Y274.996501 Z-1.000000 I29.853408 J-25.119994
G03 X131.111800 Y266.991614 Z-1.000000 I18.552068 J-8.004887
G03 X132.371012 Y259.642895 Z-1.000000 I22.073039 J0.000000
G03 X134.150998 Y258.383680 Z-1.000000 I1.779986 J0.628458
G03 X137.096750 Y258.849704 Z-1.000000 I0.000000 J9.543111
G03 X147.761397 Y262.800610 Z-1.000000 I-42.836634 J131.997500
G02 X158.535185 Y266.207210 Z-1.000000 I24.360298 J-58.302403
G02 X167.822790 Y267.217540 Z-1.000000 I9.287605 J-42.183667
G02 X176.591009 Y265.590470 Z-1.000000 I0.000000 J-24.439331
G02 X182.374807 Y261.624270 Z-1.000000 I-5.422541 J-14.107816
G02 X186.096662 Y255.492704 Z-1.000000 I-14.079254 J-12.741458
G02 X187.684163 Y247.325522 Z-1.000000 I-23.950451 J-8.893261
G02 X187.107439 Y238.841580 Z-1.000000 I-44.211195 J-1.256170
G02 X185.623312 Y234.885026 Z-1.000000 I-10.773435 J1.784551
G02 X182.611416 Y231.949785 Z-1.000000 I-7.383069 J4.562984
G02 X164.870160 Y222.786749 Z-1.000000 I-98.537444 J169.029257
G03 X147.565077 Y212.972880 Z-1.000000 I45.607852 J-100.585880
G03 X138.844876 Y204.748928 Z-1.000000 I22.838400 J-32.951690
G02 X133.894176 Y199.245523 Z-1.000000 I-42.910162 J33.622250
G02 X130.198420 Y196.730478 Z-1.000000 I-9.055315 J9.333513
G02 X125.838631 Y195.535978 Z-1.000000 I-5.943511 J13.139520
G02 X117.456964 Y195.074350 Z-1.000000 I-8.381667 J75.861156
G03 X104.747119 Y193.547435 Z-1.000000 I-0.000000 J-53.661014
G03 X102.416917 Y191.407739 Z-1.000000 I0.776240 J-3.184035
G03 X102.766337 Y188.114176 Z-1.000000 I3.765372 J-1.265841
G03 X109.522638 Y179.437211 Z-1.000000 I37.660530 J22.355421
G03 X118.779224 Y172.511184 Z-1.000000 I29.032646 J29.153231
G03 X145.647384 Y159.636231 Z-1.000000 I131.341379 J239.617968
G02 X172.419351 Y146.620333 Z-1.000000 I-94.569837 J-228.558684
G02 X182.919091 Y138.653811 Z-1.000000 I-23.786690 J-42.252952
G02 X191.044409 Y128.424049 Z-1.000000 I-40.548499 J-40.548727
G02 X194.352579 Y120.298611 Z-1.000000 I-21.950706 J-13.673115
G02 X194.628468 Y111.633229 Z-1.000000 I-23.094228 J-5.072358
G02 X191.496151 Y101.720679 Z-1.000000 I-33.597207 J5.165381
G02 X185.473370 Y93.016634 Z-1.000000 I-32.661848 J16.164668
G02 X171.892255 Y80.721181 Z-1.000000 I-79.804964 J74.501359
G01 X157.092966 Y69.429711 Z-1.000000
G01 X159.114606 Y52.011136 Z-1.000000
G02 X159.048796 Y36.451750 Z-1.000000 I-64.674477 J-7.506285
G02 X156.943482 Y34.592560 Z-1.000000 I-2.105314 J0.262415
G02 X153.234598 Y35.688444 Z-1.000000 I-0.000000 J6.824074
G02 X146.710883 Y41.217955 Z-1.000000 I18.135363 J28.009185
G02 X141.638385 Y48.388227 Z-1.000000 I26.345575 J24.017137
G02 X137.631907 Y58.149520 Z-1.000000 I45.343494 J24.313894
G02 X135.097125 Y68.559800 Z-1.000000 I107.277661 J31.634594
G02 X132.840392 Y82.940364 Z-1.000000 I202.686894 J39.174890
G03 X129.734875 Y96.976070 Z-1.000000 I-73.410683 J-8.881312
G03 X124.201807 Y109.441944 Z-1.000000 I-63.285615 J-20.628891
G02 X118.189141 Y121.818271 Z-1.000000 I87.689568 J50.250042
G02 X113.393698 Y136.181950 Z-1.000000 I113.493162 J45.873054
G03 X108.748958 Y150.586762 Z-1.000000 I-141.818018 J-37.777071
G03 X105.331393 Y157.375764 Z-1.000000 I-34.594186 J-13.159923
G03 X100.379370 Y163.035924 Z-1.000000 I-21.258878 J-13.602878
G03 X86.712725 Y173.137137 Z-1.000000 I-83.267647 J-98.362795
G02 X72.917826 Y183.205542 Z-1.000000 I76.946070 J119.909683
G02 X64.865382 Y191.185479 Z-1.000000 I39.982700 J48.398766
G02 X59.601626 Y200.711057 Z-1.000000 I21.523645 J18.110935
G02 X57.496300 Y214.177955 Z-1.000000 I42.018432 J13.466898
G02 X58.735500 Y228.223109 Z-1.000000 I80.213852 J0.000000
G02 X63.347551 Y247.079007 Z-1.000000 I149.690889 J-26.621599
G03 X68.066688 Y265.920282 Z-1.000000 I-158.916875 J49.815227
G03 X69.236791 Y278.191983 Z-1.000000 I-65.913380 J12.476458
G03 X66.944986 Y289.384501 Z-1.000000 I-28.058346 J0.085605
G03 X61.744680 Y295.572646 Z-1.000000 I-12.897807 J-5.559723
G03 X56.760827 Y298.420531 Z-1.000000 I-25.845343 J-39.444986
G03 X54.170518 Y298.943930 Z-1.000000 I-2.283411 J-4.629200
G03 X51.609917 Y298.155642 Z-1.000000 I0.336235 J-5.645152
G03 X46.380439 Y294.657526 Z-1.000000 I31.144259 J-52.216774
G03 X39.735491 Y287.808761 Z-1.000000 I18.008803 J-24.120846
G03 X28.811290 Y269.579752 Z-1.000000 I122.275458 J-85.664514
G03 X20.373034 Y249.894179 Z-1.000000 I150.103730 J-75.993553
G03 X14.780461 Y230.074230 Z-1.000000 I146.576835 J-52.058421
G03 X11.475705 Y209.693618 Z-1.000000 I210.396187 J-44.574399
G03 X10.484638 Y192.129730 Z-1.000000 I155.139804 J-17.563888
G03 X11.456797 Y174.563911 Z-1.000000 I159.183368 J-0.000000
G03 X14.603752 Y155.029815 Z-1.000000 I200.118667 J22.218705
G03 X19.918620 Y136.008903 Z-1.000000 I152.011677 J32.222462
G03 X28.134243 Y116.295429 Z-1.000000 I171.548429 J59.924414
G03 X38.525230 Y97.622204 Z-1.000000 I177.512283 J86.551572
G03 X49.271570 Y82.724465 Z-1.000000 I123.485760 J77.750499
G03 X61.644462 Y69.101186 Z-1.000000 I143.825113 J118.194126
G03 X75.998740 Y56.071354 Z-1.000000 I145.865372 J146.270597
G03 X91.632630 Y44.665870 Z-1.000000 I102.979741 J124.740175
G03 X109.491608 Y34.583608 Z-1.000000 I98.095988 J152.901858
G03 X128.414357 Y26.723686 Z-1.000000 I70.994075 J144.209904
G03 X149.423709 Y20.910177 Z-1.000000 I58.934617 J172.113476
G03 X170.983131 Y17.932971 Z-1.000000 I31.196779 J146.361484
G03 X196.244939 Y17.888673 Z-1.000000 I12.983747 J201.193720
G03 X221.303380 Y21.055187 Z-1.000000 I-11.883283 J194.773372
G03 X243.580236 Y27.014875 Z-1.000000 I-30.793858 J159.719519
G02 X265.631598 Y33.954787 Z-1.000000 I137.412032 J-398.118881
G02 X269.730317 Y34.462408 Z-1.000000 I3.681922 J-12.928106
G02 X270.089904 Y33.445192 Z-1.000000 I-0.017939 J-0.578507
G02 X262.688729 Y28.402880 Z-1.000000 I-26.011202 J30.226672
G02 X251.104722 Y23.373209 Z-1.000000 I-38.861800 J73.649340
G02 X229.090733 Y16.754553 Z-1.000000 I-90.378279 J260.683609
G02 X206.552902 Y12.551113 Z-1.000000 I-43.066214 J168.387747
G02 X184.380094 Y11.436598 Z-1.000000 I-19.249058 J161.835338
G02 X162.068295 Y12.249740 Z-1.000000 I10.832545 J603.747333
G02 X154.668760 Y13.069891 Z-1.000000 I3.685246 J67.038924
G01 X154.668760 Y13.069891 Z-1.000000
G00 Z5.000000

(End cutting path id: path5455)


(Start cutting path id: path5455)
(Change tool to Cylindrical cutter)

G00 Z5.000000
G00 X265.828165 Y55.440764

G01 Z-1.000000 F100.0(Penetrate)
G02 X261.895676 Y59.143772 Z-1.000000 I6.015217 J10.327590 F400.000000
G02 X260.675080 Y63.178784 Z-1.000000 I6.059117 J4.035012
G02 X261.529731 Y67.728007 Z-1.000000 I12.534857 J-0.000000
G02 X272.616839 Y93.839433 Z-1.000000 I438.692199 J-170.862458
G03 X282.038510 Y119.688215 Z-1.000000 I-152.271791 J70.143284
G03 X281.357207 Y125.745392 Z-1.000000 I-7.936717 J2.174194
G03 X276.978573 Y130.219999 Z-1.000000 I-9.878298 J-5.286763
G03 X264.747254 Y135.103630 Z-1.000000 I-24.338775 J-43.198968
G02 X252.750502 Y140.173223 Z-1.000000 I10.423700 J41.396212
G02 X248.233177 Y145.295961 Z-1.000000 I6.165951 J9.990349
G02 X246.851465 Y152.142006 Z-1.000000 I14.036107 J6.395312
G02 X248.683410 Y160.696559 Z-1.000000 I24.191960 J-0.707241
G02 X253.462524 Y168.103576 Z-1.000000 I22.706977 J-9.405586
G02 X260.137952 Y172.910902 Z-1.000000 I15.613021 J-14.641763
G02 X268.322218 Y175.409372 Z-1.000000 I13.325839 J-28.997724
G02 X291.593590 Y178.045848 Z-1.000000 I38.514096 J-235.929272
G03 X314.709710 Y180.920328 Z-1.000000 I-12.403982 J194.136242
G03 X321.672353 Y183.631881 Z-1.000000 I-3.654814 J19.679732
G02 X328.387766 Y187.038392 Z-1.000000 I22.298636 J-35.635867
G02 X331.896722 Y187.712800 Z-1.000000 I3.508956 J-8.791377
G02 X332.708511 Y186.515393 Z-1.000000 I0.000000 J-0.873882
G02 X329.443412 Y181.556895 Z-1.000000 I-13.672694 J5.449012
G02 X322.319667 Y177.486580 Z-1.000000 I-11.022972 J11.023038
G02 X297.134393 Y173.210164 Z-1.000000 I-37.800940 J146.322072
G03 X271.402913 Y169.562137 Z-1.000000 I18.955047 J-226.273019
G03 X261.411235 Y166.039631 Z-1.000000 I7.426155 J-36.996557
G03 X253.896319 Y159.812666 Z-1.000000 I10.696855 J-20.557446
G03 X251.841220 Y153.877644 Z-1.000000 I7.542473 J-5.935022
G03 X253.454840 Y147.661944 Z-1.000000 I12.778319 J-0.000000
G03 X257.536881 Y143.647092 Z-1.000000 I8.875087 J4.941010
G03 X263.420698 Y141.349273 Z-1.000000 I12.544546 J23.439693
G03 X269.315361 Y140.598880 Z-1.000000 I5.894663 J22.777382
G02 X274.863539 Y139.308120 Z-1.000000 I0.000000 J-12.569471
G02 X281.287420 Y134.709640 Z-1.000000 I-10.671612 J-21.693973
G02 X285.478668 Y128.117097 Z-1.000000 I-12.707346 J-12.707346
G02 X287.176660 Y118.434342 Z-1.000000 I-26.758825 J-9.682754
G02 X285.495478 Y108.461986 Z-1.000000 I-30.417361 J0.000000
G02 X276.498496 Y87.664300 Z-1.000000 I-144.276581 J50.068503
G03 X267.521240 Y67.181389 Z-1.000000 I142.673934 J-74.739908
G03 X267.572205 Y62.714888 Z-1.000000 I6.049918 J-2.164509
G03 X270.044771 Y59.197990 Z-1.000000 I8.228898 J3.157731
G03 X272.865895 Y58.149520 Z-1.000000 I2.821124 J3.271173
G03 X275.937606 Y59.242620 Z-1.000000 I0.000000 J4.862445
G03 X288.417582 Y70.822899 Z-1.000000 I-83.754503 J102.776489
G03 X299.783009 Y84.016077 Z-1.000000 I-133.337621 J126.357384
G03 X314.856824 Y104.630700 Z-1.000000 I-311.234609 J243.399279
G03 X323.894121 Y118.568554 Z-1.000000 I-288.237720 J196.791999
G03 X327.109811 Y125.268879 Z-1.000000 I-30.493464 J18.756559
G03 X328.564737 Y132.312155 Z-1.000000 I-24.303582 J8.692287
G03 X328.754370 Y143.488171 Z-1.000000 I-118.801015 J7.605420
G02 X328.710267 Y154.701616 Z-1.000000 I215.048626 J6.452618
G02 X329.263087 Y158.267686 Z-1.000000 I13.739990 J-0.304119
G02 X331.059552 Y160.482208 Z-1.000000 I3.546047 J-1.040698
G02 X333.955806 Y161.211220 Z-1.000000 I2.896255 J-5.388687
G02 X338.860127 Y160.016748 Z-1.000000 I-0.000000 J-10.665431
G02 X341.063913 Y157.530445 Z-1.000000 I-2.124703 J-4.103111
G03 X341.972628 Y155.880775 Z-1.000000 I6.063108 J2.264725
G03 X342.483216 Y155.701232 Z-1.000000 I0.391376 J0.297222
G03 X342.992525 Y156.083048 Z-1.000000 I-0.199070 J0.796136
G03 X344.007973 Y158.266600 Z-1.000000 I-11.080429 J6.480782
G03 X345.395981 Y162.735391 Z-1.000000 I-54.842712 J19.484120
G03 X347.379092 Y170.891099 Z-1.000000 I-180.902236 J48.306451
G02 X350.592881 Y177.011152 Z-1.000000 I12.775330 J-2.804791
G02 X354.250451 Y178.252649 Z-1.000000 I2.985327 J-2.786536
G03 X356.507885 Y178.781304 Z-1.000000 I0.495417 J2.968609
G03 X358.397882 Y181.746301 Z-1.000000 I-2.789826 J3.863212
G03 X358.899051 Y186.598789 Z-1.000000 I-27.659824 J5.308852
G03 X358.892026 Y202.435900 Z-1.000000 I-475.615751 J7.707598
G03 X356.760637 Y227.155701 Z-1.000000 I-180.126327 J-3.079054
G03 X352.266631 Y244.857715 Z-1.000000 I-96.440410 J-15.061849
G02 X346.684001 Y262.356552 Z-1.000000 I258.401158 J92.077301
G02 X346.069060 Y266.795134 Z-1.000000 I15.711153 J4.438582
G02 X347.164367 Y268.695705 Z-1.000000 I2.196583 J0.000000
G02 X348.946572 Y268.462496 Z-1.000000 I0.739388 J-1.276027
G02 X351.187987 Y265.185890 Z-1.000000 I-7.611983 J-7.612040
G02 X357.951102 Y247.997387 Z-1.000000 I-213.315378 J-93.857429
G02 X362.669321 Y230.122297 Z-1.000000 I-113.251867 J-39.453634
G02 X365.779757 Y205.198160 Z-1.000000 I-217.761898 J-39.832003
G02 X365.889707 Y180.329117 Z-1.000000 I-197.152844 J-13.306406
G02 X363.910925 Y173.315110 Z-1.000000 I-16.939930 J0.992941
G02 X359.604910 Y168.618955 Z-1.000000 I-11.322453 J6.059603
G02 X356.149407 Y168.251983 Z-1.000000 I-2.086993 J3.199229
G03 X353.571583 Y167.513184 Z-1.000000 I-0.798442 J-2.080750
G03 X351.958300 Y162.694720 Z-1.000000 I6.389118 J-4.818465
G02 X350.385980 Y156.471018 Z-1.000000 I-13.103771 J0.000000
G02 X346.520176 Y152.618789 Z-1.000000 I-8.334965 J4.498509
G02 X341.340758 Y151.455732 Z-1.000000 I-4.686781 J8.757319
G02 X337.735373 Y153.055035 Z-1.000000 I0.271965 J5.476653
G03 X334.388723 Y155.022880 Z-1.000000 I-5.465778 J-5.465778
G03 X332.526900 Y154.539830 Z-1.000000 I-0.520165 J-1.824670
G03 X331.796159 Y152.419111 Z-1.000000 I1.809896 J-1.809896
G03 X333.884576 Y143.442382 Z-1.000000 I42.892079 J5.247453
G02 X335.160572 Y134.265459 Z-1.000000 I-22.319204 J-7.780524
G02 X332.716504 Y123.705742 Z-1.000000 I-32.290482 J1.910998
G02 X327.433564 Y113.714823 Z-1.000000 I-57.613249 J24.072198
G02 X308.866113 Y87.064952 Z-1.000000 I-432.229015 J281.348763
G02 X288.720571 Y61.628089 Z-1.000000 I-436.479865 J324.988382
G02 X283.217883 Y56.592758 Z-1.000000 I-21.998645 J18.516082
G02 X276.833304 Y52.925827 Z-1.000000 I-23.582855 J33.669018
G02 X274.006818 Y52.349826 Z-1.000000 I-2.639783 J5.730738
G02 X271.119124 Y52.921507 Z-1.000000 I0.263269 J8.908881
G02 X265.828165 Y55.440764 Z-1.000000 I12.489420 J33.046031
G01 X265.828165 Y55.440764 Z-1.000000
G00 Z5.000000

(End cutting path id: path5455)


(Footer)
M5
G00 X0.0000 Y0.0000
M2
(Using default footer. To add your own footer create file "footer" in the output dir.)
(end)
%