%
(Header)
(Generated by gcodetools from Inkscape.)
(Using default header. To add your own header create file "header" in the output dir.)
M3
(Header end.)
G21 (All units in mm)

(Start cutting path id: path1451)
(Change tool to Cylindrical cutter)

G00 Z5.000000
G00 X74.304640 Y52.836575

G01 Z-1.000000 F100.0(Penetrate)
G02 X72.570906 Y44.354799 Z-1.000000 I-21.614140 J0.000000 F400.000000
G02 X67.593195 Y37.105643 Z-1.000000 I-20.512126 J8.751293
G02 X60.190925 Y32.292967 Z-1.000000 I-15.940423 J16.418637
G02 X51.390335 Y30.589678 Z-1.000000 I-8.800590 J21.883900
G02 X35.087991 Y37.201639 Z-1.000000 I-0.000000 J23.403376
G02 X28.476030 Y52.836575 Z-1.000000 I15.179548 J15.634936
G02 X35.087992 Y68.471510 Z-1.000000 I21.791510 J-0.000001
G02 X51.390335 Y75.083471 Z-1.000000 I16.302343 J-16.791415
G02 X67.692678 Y68.471510 Z-1.000000 I0.000000 J-23.403376
G02 X74.304640 Y52.836575 Z-1.000000 I-15.179548 J-15.634936
G01 X74.304640 Y52.836575 Z-1.000000
G00 Z5.000000

(End cutting path id: path1451)


(Footer)
M5
G00 X0.0000 Y0.0000
M2
(Using default footer. To add your own footer create file "footer" in the output dir.)
(end)
%