%
(Header)
(Generated by gcodetools from Inkscape.)
(Using default header. To add your own header create file "header" in the output dir.)
M3
(Header end.)
G21 (All units in mm)

(Start cutting path id: path234)
(Change tool to Cylindrical cutter)

G00 Z5.000000
G00 X67.630566 Y53.059044

G01 Z-1.000000 F100.0(Penetrate)
G02 X65.332810 Y37.497025 Z-1.000000 I-53.847341 J-0.000001 F400.000000
G02 X59.224970 Y25.215292 Z-1.000000 I-39.194349 J11.832165
G02 X49.410737 Y16.451721 Z-1.000000 I-25.256504 J18.407283
G02 X38.932066 Y13.682033 Z-1.000000 I-10.478671 J18.437343
G02 X28.453395 Y16.451721 Z-1.000000 I0.000000 J21.207031
G02 X18.639162 Y25.215293 Z-1.000000 I15.442271 J27.170855
G02 X12.531322 Y37.497025 Z-1.000000 I33.086509 J24.113897
G02 X10.233566 Y53.059044 Z-1.000000 I51.549584 J15.562018
G02 X12.531322 Y68.621063 Z-1.000000 I53.847338 J0.000000
G02 X18.639162 Y80.902794 Z-1.000000 I39.194349 J-11.832165
G02 X28.453395 Y89.666366 Z-1.000000 I25.256504 J-18.407283
G02 X38.932066 Y92.436054 Z-1.000000 I10.478671 J-18.437343
G02 X49.410737 Y89.666366 Z-1.000000 I-0.000000 J-21.207031
G02 X59.224970 Y80.902794 Z-1.000000 I-15.442270 J-27.170854
G02 X65.332810 Y68.621063 Z-1.000000 I-33.086509 J-24.113897
G02 X67.630566 Y53.059044 Z-1.000000 I-51.549584 J-15.562019
G01 X67.630566 Y53.059044 Z-1.000000
G00 Z5.000000

(End cutting path id: path234)


(Footer)
M5
G00 X0.0000 Y0.0000
M2
(Using default footer. To add your own footer create file "footer" in the output dir.)
(end)
%