%
(Header)
(Generated by gcodetools from Inkscape.)
(Using default header. To add your own header create file "header" in the output dir.)
M3
(Header end.)
G21 (All units in mm)

(Start cutting path id: path527)
(Change tool to Cylindrical cutter)

G00 Z5.000000
G00 X77.419203 Y23.081255

G01 Z-1.000000 F100.0(Penetrate)
G02 X76.796125 Y20.026968 Z-1.000000 I-7.797490 J-0.000000 F400.000000
G02 X75.008296 Y17.418119 Z-1.000000 I-7.385232 J3.144037
G02 X72.348409 Y15.685300 Z-1.000000 I-5.732882 J5.892128
G02 X69.187851 Y15.072371 Z-1.000000 I-3.160558 J7.842214
G02 X66.027293 Y15.685300 Z-1.000000 I-0.000000 J8.455143
G02 X63.367406 Y17.418119 Z-1.000000 I3.072996 J7.624947
G02 X61.579577 Y20.026968 Z-1.000000 I5.597403 J5.752886
G02 X60.956499 Y23.081255 Z-1.000000 I7.174412 J3.054286
G02 X63.334288 Y28.712350 Z-1.000000 I7.856692 J-0.000001
G02 X69.187851 Y31.090138 Z-1.000000 I5.853563 J-6.016162
G02 X75.041414 Y28.712350 Z-1.000000 I0.000000 J-8.393950
G02 X77.419203 Y23.081255 Z-1.000000 I-5.478903 J-5.631095
G01 X77.419203 Y23.081255 Z-1.000000
G00 Z5.000000

(End cutting path id: path527)


(Start cutting path id: path525)
(Change tool to Cylindrical cutter)

G00 Z5.000000
G00 X56.952058 Y39.321489

G01 Z-1.000000 F100.0(Penetrate)
G02 X55.747667 Y36.298970 Z-1.000000 I-4.394828 J0.000001 F400.000000
G02 X52.947617 Y35.094579 Z-1.000000 I-2.800051 J2.652680
G02 X50.147566 Y36.298970 Z-1.000000 I-0.000000 J3.857071
G02 X48.943175 Y39.321489 Z-1.000000 I3.190437 J3.022520
G02 X49.251187 Y40.949598 Z-1.000000 I4.456983 J0.000000
G02 X50.116049 Y42.310366 Z-1.000000 I3.928441 J-1.541571
G02 X51.425771 Y43.230246 Z-1.000000 I2.922425 J-2.768613
G02 X52.947617 Y43.548400 Z-1.000000 I1.521846 J-3.480689
G02 X55.747667 Y42.344009 Z-1.000000 I-0.000001 J-3.857071
G02 X56.952058 Y39.321489 Z-1.000000 I-3.190438 J-3.022519
G01 X56.952058 Y39.321489 Z-1.000000
G00 Z5.000000

(End cutting path id: path525)


(Start cutting path id: path521)
(Change tool to Cylindrical cutter)

G00 Z5.000000
G00 X39.599478 Y24.304832

G01 Z-1.000000 F100.0(Penetrate)
G02 X35.137190 Y13.750465 Z-1.000000 I-14.712931 J0.000000 F400.000000
G02 X24.137884 Y9.288177 Z-1.000000 I-10.999306 J11.325212
G02 X13.138578 Y13.750465 Z-1.000000 I0.000000 J15.787500
G02 X8.676290 Y24.304832 Z-1.000000 I10.250644 J10.554367
G02 X13.138578 Y34.859199 Z-1.000000 I14.712931 J0.000000
G02 X24.137884 Y39.321487 Z-1.000000 I10.999306 J-11.325212
G02 X30.075890 Y38.171847 Z-1.000000 I0.000000 J-15.910016
G02 X35.070882 Y34.923211 Z-1.000000 I-5.763020 J-14.325404
G02 X38.429540 Y30.030295 Z-1.000000 I-10.487292 J-10.798027
G02 X39.599478 Y24.304832 Z-1.000000 I-13.424721 J-5.725463
G01 X39.599478 Y24.304832 Z-1.000000
G00 Z5.000000

(End cutting path id: path521)


(Footer)
M5
G00 X0.0000 Y0.0000
M2
(Using default footer. To add your own footer create file "footer" in the output dir.)
(end)
%