%
(Header)
(Generated by gcodetools from Inkscape.)
(Using default header. To add your own header create file "header" in the output dir.)
M3
(Header end.)
G21 (All units in mm)

(Start cutting path id: path7271)
(Change tool to Cylindrical cutter)

G00 Z5.000000
G00 X163.616710 Y221.931260

G01 Z-1.000000 F100.0(Penetrate)
G01 X151.069830 Y325.618770 Z-1.000000 F400.000000
G01 X170.522960 Y325.618770 Z-1.000000
G01 X176.679210 Y265.196900 Z-1.000000
G01 X184.476080 Y325.478145 Z-1.000000
G01 X199.710460 Y325.478145 Z-1.000000
G01 X207.897960 Y265.571900 Z-1.000000
G01 X214.179210 Y325.618770 Z-1.000000
G01 X233.382330 Y325.618770 Z-1.000000
G01 X220.960460 Y221.931260 Z-1.000000
G01 X200.991710 Y221.931260 Z-1.000000
G01 X192.163580 Y284.525018 Z-1.000000
G01 X183.835460 Y221.931260 Z-1.000000
G01 X163.616710 Y221.931260 Z-1.000000
G00 Z5.000000

(End cutting path id: path7271)


(Start cutting path id: path7271)
(Change tool to Cylindrical cutter)

G00 Z5.000000
G00 X265.503470 Y220.650010

G01 Z-1.000000 F100.0(Penetrate)
G02 X257.631641 Y221.459668 Z-1.000000 I-0.000000 J38.671431 F400.000000
G02 X251.675350 Y223.525010 Z-1.000000 I4.995916 J24.029259
G02 X246.594732 Y227.112074 Z-1.000000 I9.412414 J18.723040
G02 X242.847220 Y231.978140 Z-1.000000 I14.134350 J14.761382
G02 X240.631199 Y237.763263 Z-1.000000 I19.475657 J10.777242
G02 X239.769100 Y245.353140 Z-1.000000 I32.979416 J7.589877
G01 X239.769100 Y272.493770 Z-1.000000
G02 X240.640888 Y280.203909 Z-1.000000 I34.530311 J-0.000000
G02 X242.847220 Y285.931268 Z-1.000000 I21.059854 J-4.824169
G02 X246.592278 Y290.729504 Z-1.000000 I17.481040 J-9.783439
G02 X251.737850 Y294.306268 Z-1.000000 I14.559658 J-15.456064
G02 X257.754592 Y296.392081 Z-1.000000 I11.194140 J-22.569788
G02 X265.503470 Y297.196893 Z-1.000000 I7.748878 J-36.901400
G02 X273.490428 Y296.376713 Z-1.000000 I0.000000 J-39.298784
G02 X279.128470 Y294.368768 Z-1.000000 I-4.437933 J-21.380537
G02 X283.886410 Y290.869733 Z-1.000000 I-8.607102 J-16.688229
G02 X287.331600 Y286.056268 Z-1.000000 I-13.425404 J-13.248762
G02 X289.291164 Y280.369671 Z-1.000000 I-20.468410 J-10.234205
G02 X290.081600 Y272.493770 Z-1.000000 I-38.842508 J-7.875901
G01 X290.081600 Y257.650020 Z-1.000000
G01 X260.378470 Y257.650020 Z-1.000000
G01 X260.378470 Y243.431260 Z-1.000000
G03 X260.570683 Y240.652000 Z-1.000000 I20.189152 J0.000000
G03 X261.019100 Y238.821890 Z-1.000000 I9.147608 J1.271374
G03 X261.861457 Y237.197504 Z-1.000000 I6.484917 J2.332277
G03 X262.815970 Y236.259390 Z-1.000000 I3.018550 J2.116660
G03 X264.034009 Y235.698991 Z-1.000000 I2.417985 J3.651627
G03 X265.503470 Y235.493760 Z-1.000000 I1.469461 J5.158073
G03 X266.984811 Y235.680140 Z-1.000000 I0.000000 J5.980029
G03 X268.253470 Y236.196890 Z-1.000000 I-1.247034 J4.877253
G03 X269.296000 Y237.060590 Z-1.000000 I-2.016059 J3.494527
G03 X270.175350 Y238.431260 Z-1.000000 I-4.425551 J3.806611
G03 X270.660746 Y240.025301 Z-1.000000 I-5.804839 J2.638536
G03 X270.878470 Y242.665640 Z-1.000000 I-15.900843 J2.640339
G01 X270.878470 Y250.478140 Z-1.000000
G01 X290.081600 Y250.478140 Z-1.000000
G01 X290.081600 Y243.306260 Z-1.000000
G02 X288.151352 Y232.917709 Z-1.000000 I-28.920599 J0.000000
G02 X283.550350 Y226.337510 Z-1.000000 I-15.584897 J5.998607
G02 X276.391957 Y222.325161 Z-1.000000 I-13.200050 J15.158299
G02 X265.503470 Y220.650010 Z-1.000000 I-10.888487 J34.550016
G01 X265.503470 Y220.650010 Z-1.000000
G00 Z5.000000

(End cutting path id: path7271)


(Start cutting path id: path7271)
(Change tool to Cylindrical cutter)

G00 Z5.000000
G00 X260.378470 Y267.368770

G01 Z-1.000000 F100.0(Penetrate)
G01 X270.878470 Y267.368770 Z-1.000000 F400.000000
G01 X270.878470 Y274.790640 Z-1.000000
G03 X270.657931 Y277.698896 Z-1.000000 I-19.285920 J-0.000000
G03 X270.175350 Y279.400018 Z-1.000000 I-7.007714 J-1.068965
G03 X269.271758 Y280.887941 Z-1.000000 I-5.453779 J-2.293662
G03 X268.253470 Y281.712518 Z-1.000000 I-2.577863 J-2.142419
G03 X266.990918 Y282.175671 Z-1.000000 I-2.370744 J-4.510195
G03 X265.378470 Y282.353143 Z-1.000000 I-1.612448 J-7.236353
G03 X263.915506 Y282.140059 Z-1.000000 I0.000000 J-5.128643
G03 X262.753470 Y281.571893 Z-1.000000 I1.119906 J-3.762885
G03 X261.860672 Y280.654789 Z-1.000000 I1.962583 J-2.803690
G03 X261.019100 Y278.946893 Z-1.000000 I6.318756 J-4.174880
G03 X260.584436 Y277.068377 Z-1.000000 I8.525210 J-2.962168
G03 X260.378470 Y273.650020 Z-1.000000 I28.263744 J-3.418357
G01 X260.378470 Y267.368770 Z-1.000000
G00 Z5.000000

(End cutting path id: path7271)


(Start cutting path id: path7271)
(Change tool to Cylindrical cutter)

G00 Z5.000000
G00 X302.366600 Y221.931260

G01 Z-1.000000 F100.0(Penetrate)
G01 X302.366600 Y325.618770 Z-1.000000 F400.000000
G01 X323.100980 Y325.618770 Z-1.000000
G01 X323.100980 Y221.931260 Z-1.000000
G01 X302.366600 Y221.931260 Z-1.000000
G00 Z5.000000

(End cutting path id: path7271)


(Start cutting path id: path7271)
(Change tool to Cylindrical cutter)

G00 Z5.000000
G00 X360.610500 Y220.650010

G01 Z-1.000000 F100.0(Penetrate)
G02 X352.749061 Y221.479464 Z-1.000000 I0.000000 J37.669480 F400.000000
G02 X346.844880 Y223.587510 Z-1.000000 I4.944451 J23.170533
G02 X341.805096 Y227.208964 Z-1.000000 I9.952765 J19.168255
G02 X338.079250 Y232.040640 Z-1.000000 I14.491429 J15.027156
G02 X335.866813 Y237.766407 Z-1.000000 I18.990888 J10.628406
G02 X335.001130 Y245.353140 Z-1.000000 I32.811710 J7.586733
G01 X335.001130 Y272.493770 Z-1.000000
G02 X335.872918 Y280.203909 Z-1.000000 I34.530311 J-0.000000
G02 X338.079250 Y285.931268 Z-1.000000 I21.059854 J-4.824169
G02 X341.811862 Y290.748570 Z-1.000000 I17.914430 J-10.025990
G02 X346.844880 Y294.306268 Z-1.000000 I14.506282 J-15.182890
G02 X352.743251 Y296.379787 Z-1.000000 I10.814078 J-21.335864
G02 X360.610500 Y297.196893 Z-1.000000 I7.867249 J-37.465101
G02 X368.401833 Y296.499150 Z-1.000000 I-0.000000 J-43.849739
G02 X374.110500 Y294.759393 Z-1.000000 I-4.534818 J-25.115916
G02 X379.059846 Y291.641762 Z-1.000000 I-7.737073 J-17.770310
G02 X382.610500 Y287.400018 Z-1.000000 I-11.345644 J-13.104099
G02 X384.708981 Y282.241418 Z-1.000000 I-15.558974 J-9.335400
G02 X385.563630 Y274.915640 Z-1.000000 I-30.969780 J-7.325778
G01 X385.563630 Y267.118770 Z-1.000000
G01 X365.469880 Y267.118770 Z-1.000000
G01 X365.469880 Y275.556270 Z-1.000000
G03 X365.284948 Y278.476887 Z-1.000000 I-23.154984 J0.000000
G03 X364.891750 Y280.103143 Z-1.000000 I-7.508033 J-0.954638
G03 X364.116842 Y281.549138 Z-1.000000 I-5.267375 J-1.892147
G03 X363.219880 Y282.353143 Z-1.000000 I-2.421956 J-1.799642
G03 X362.092510 Y282.814507 Z-1.000000 I-2.114154 J-3.557983
G03 X360.610500 Y282.993768 Z-1.000000 I-1.482010 J-6.036491
G03 X359.162176 Y282.761459 Z-1.000000 I0.000000 J-4.630923
G03 X358.048000 Y282.150018 Z-1.000000 I1.087280 J-3.302109
G03 X357.235121 Y281.189461 Z-1.000000 I2.168168 J-2.659061
G03 X356.516750 Y279.462518 Z-1.000000 I6.586190 J-3.752597
G03 X356.165500 Y277.596219 Z-1.000000 I10.565121 J-2.954627
G03 X356.001130 Y274.290640 Z-1.000000 I33.156298 J-3.305579
G01 X356.001130 Y243.556260 Z-1.000000
G03 X356.433632 Y238.704728 Z-1.000000 I27.426924 J0.000000
G03 X357.219880 Y236.775010 Z-1.000000 I4.940466 J0.887918
G03 X358.695648 Y235.481035 Z-1.000000 I3.262323 J2.232116
G03 X360.735500 Y234.993760 Z-1.000000 I2.039852 J4.026018
G03 X362.342787 Y235.200537 Z-1.000000 I-0.000000 J6.350142
G03 X363.423000 Y235.696890 Z-1.000000 I-0.864946 J3.305994
G03 X364.260823 Y236.543482 Z-1.000000 I-1.756407 J2.576082
G03 X364.954250 Y237.993760 Z-1.000000 I-4.725482 J3.150328
G03 X365.309780 Y239.612764 Z-1.000000 I-8.164181 J2.641378
G03 X365.469880 Y242.290640 Z-1.000000 I-22.315440 J2.677876
G01 X365.469880 Y252.134390 Z-1.000000
G01 X385.563630 Y252.134390 Z-1.000000
G01 X385.563630 Y243.181260 Z-1.000000
G02 X384.707995 Y235.994922 Z-1.000000 I-30.606269 J-0.000000
G02 X382.548000 Y230.696890 Z-1.000000 I-18.594141 J4.491460
G02 X378.933754 Y226.338546 Z-1.000000 I-15.660475 J9.309004
G02 X373.985500 Y223.150010 Z-1.000000 I-13.020977 J14.773272
G02 X368.270832 Y221.359783 Z-1.000000 I-10.356385 J23.042957
G02 X360.610500 Y220.650010 Z-1.000000 I-7.660332 J40.982774
G01 X360.610500 Y220.650010 Z-1.000000
G00 Z5.000000

(End cutting path id: path7271)


(Start cutting path id: path7271)
(Change tool to Cylindrical cutter)

G00 Z5.000000
G00 X420.764490 Y220.650010

G01 Z-1.000000 F100.0(Penetrate)
G02 X412.991942 Y221.401643 Z-1.000000 I-0.000000 J40.563330 F400.000000
G02 X406.998870 Y223.337510 Z-1.000000 I5.055873 J25.896640
G02 X401.837684 Y226.741846 Z-1.000000 I8.681402 J18.776055
G02 X398.045740 Y231.400010 Z-1.000000 I13.064043 J14.507172
G02 X395.806636 Y237.019083 Z-1.000000 I17.520632 J10.237330
G02 X394.905120 Y244.837510 Z-1.000000 I33.452028 J7.818427
G01 X394.905120 Y273.009390 Z-1.000000
G02 X395.806636 Y280.827820 Z-1.000000 I34.353564 J-0.000000
G02 X398.045740 Y286.446893 Z-1.000000 I19.759733 J-4.618255
G02 X401.837684 Y291.105057 Z-1.000000 I16.855987 J-9.849008
G02 X406.998870 Y294.509393 Z-1.000000 I13.842588 J-15.371719
G02 X412.991942 Y296.445260 Z-1.000000 I11.048945 J-23.960773
G02 X420.764490 Y297.196893 Z-1.000000 I7.772548 J-39.811697
G02 X428.537038 Y296.445261 Z-1.000000 I-0.000000 J-40.563360
G02 X434.530120 Y294.509393 Z-1.000000 I-5.055887 J-25.896735
G02 X439.713571 Y291.107005 Z-1.000000 I-8.757357 J-18.991229
G02 X443.545740 Y286.446893 Z-1.000000 I-13.200242 J-14.760727
G02 X445.830918 Y280.819116 Z-1.000000 I-17.262900 J-10.287500
G02 X446.748870 Y273.009390 Z-1.000000 I-32.762707 J-7.809726
G01 X446.748870 Y244.837510 Z-1.000000
G02 X445.830918 Y237.027787 Z-1.000000 I-33.680639 J0.000000
G02 X443.545740 Y231.400010 Z-1.000000 I-19.548081 J4.659724
G02 X439.713571 Y226.739898 Z-1.000000 I-17.032411 J10.100616
G02 X434.530120 Y223.337510 Z-1.000000 I-13.940808 J15.588841
G02 X428.537038 Y221.401642 Z-1.000000 I-11.048969 J23.960867
G02 X420.764490 Y220.650010 Z-1.000000 I-7.772548 J39.811728
G01 X420.764490 Y220.650010 Z-1.000000
G00 Z5.000000

(End cutting path id: path7271)


(Start cutting path id: path7271)
(Change tool to Cylindrical cutter)

G00 Z5.000000
G00 X420.889490 Y234.478140

G01 Z-1.000000 F100.0(Penetrate)
G03 X422.825833 Y234.795270 Z-1.000000 I-0.000000 J6.070068 F400.000000
G03 X424.092620 Y235.556260 Z-1.000000 I-1.098363 J3.263273
G03 X425.015691 Y236.782002 Z-1.000000 I-3.158599 J3.339090
G03 X425.686370 Y238.634390 Z-1.000000 I-6.728207 J3.483635
G03 X426.007649 Y240.633621 Z-1.000000 I-15.159364 J3.461558
G03 X426.139490 Y243.431260 Z-1.000000 I-29.616677 J2.797639
G01 X426.139490 Y274.415640 Z-1.000000
G03 X426.007649 Y277.213279 Z-1.000000 I-29.748569 J-0.000000
G03 X425.686370 Y279.212518 Z-1.000000 I-15.480788 J-1.462338
G03 X425.014218 Y281.062953 Z-1.000000 I-7.335666 J-1.617312
G03 X424.092620 Y282.275018 Z-1.000000 I-3.985913 J-2.074302
G03 X422.822954 Y283.047764 Z-1.000000 I-2.381623 J-2.483703
G03 X420.889490 Y283.368768 Z-1.000000 I-1.933464 J-5.662295
G03 X418.969502 Y283.050000 Z-1.000000 I0.000000 J-5.941582
G03 X417.686370 Y282.275018 Z-1.000000 I1.138938 J-3.335456
G03 X416.761093 Y281.069586 Z-1.000000 I3.298474 J-3.489706
G03 X416.030120 Y279.212518 Z-1.000000 I7.285326 J-3.940023
G03 X415.664192 Y277.209008 Z-1.000000 I13.408732 J-3.484187
G03 X415.514490 Y274.415640 Z-1.000000 I25.986551 J-2.793368
G01 X415.514490 Y243.431260 Z-1.000000
G03 X415.664193 Y240.637892 Z-1.000000 I26.136210 J-0.000000
G03 X416.030120 Y238.634390 Z-1.000000 I13.774531 J1.480666
G03 X416.759573 Y236.775384 Z-1.000000 I8.092213 J2.102675
G03 X417.686370 Y235.556260 Z-1.000000 I4.329797 J2.329735
G03 X418.966661 Y234.793057 Z-1.000000 I2.405502 J2.579825
G03 X420.889490 Y234.478140 Z-1.000000 I1.922829 J5.712771
G01 X420.889490 Y234.478140 Z-1.000000
G00 Z5.000000

(End cutting path id: path7271)


(Start cutting path id: path7271)
(Change tool to Cylindrical cutter)

G00 Z5.000000
G00 X458.276030 Y221.931260

G01 Z-1.000000 F100.0(Penetrate)
G01 X458.276030 Y295.915640 Z-1.000000 F400.000000
G01 X478.760400 Y295.915640 Z-1.000000
G01 X478.760400 Y290.025015 Z-1.000000
G02 X483.138251 Y293.545335 Z-1.000000 I21.133073 J-21.798681
G02 X487.260400 Y295.650015 Z-1.000000 I11.373475 J-17.186585
G02 X491.758310 Y296.905816 Z-1.000000 I9.268359 J-24.513539
G02 X496.291650 Y297.321890 Z-1.000000 I4.533340 J-24.488507
G02 X500.584920 Y296.710096 Z-1.000000 I0.000000 J-15.369919
G02 X504.026030 Y295.071890 Z-1.000000 I-3.315859 J-11.398272
G02 X506.781793 Y292.434341 Z-1.000000 I-6.619394 J-9.674484
G02 X508.963530 Y288.493765 Z-1.000000 I-13.071655 J-9.811503
G02 X513.684123 Y292.821660 Z-1.000000 I24.070922 J-21.516624
G02 X518.104120 Y295.337515 Z-1.000000 I12.203286 J-16.298847
G02 X523.012418 Y296.838256 Z-1.000000 I10.382086 J-25.178603
G02 X527.776000 Y297.321890 Z-1.000000 I4.763582 J-23.217786
G02 X531.962616 Y296.747805 Z-1.000000 I-0.000000 J-15.552858
G02 X535.322870 Y295.212515 Z-1.000000 I-3.199846 J-11.448329
G02 X538.077837 Y292.722681 Z-1.000000 I-6.720511 J-10.205236
G02 X540.322870 Y289.071890 Z-1.000000 I-12.622258 J-10.277666
G02 X541.610212 Y284.932221 Z-1.000000 I-16.844682 J-7.508309
G02 X542.119750 Y279.400015 Z-1.000000 I-29.777618 J-5.532206
G01 X542.119750 Y221.931260 Z-1.000000
G01 X521.635370 Y221.931260 Z-1.000000
G01 X521.635370 Y277.228140 Z-1.000000
G03 X521.275906 Y280.178463 Z-1.000000 I-12.287201 J-0.000000
G03 X520.541620 Y281.650015 Z-1.000000 I-3.651981 J-0.903317
G03 X519.273995 Y282.598761 Z-1.000000 I-2.475181 J-1.985892
G03 X517.276000 Y282.993765 Z-1.000000 I-1.997995 J-4.855585
G03 X516.019927 Y282.854571 Z-1.000000 I-0.000000 J-5.736921
G03 X514.072870 Y282.275015 Z-1.000000 I3.245709 J-14.464596
G03 X512.230584 Y281.450072 Z-1.000000 I5.167771 J-14.010402
G03 X510.369780 Y280.306265 Z-1.000000 I8.208071 J-15.438845
G01 X510.369780 Y279.853140 Z-1.000000
G01 X510.369780 Y279.400015 Z-1.000000
G01 X510.369780 Y221.931260 Z-1.000000
G01 X490.151030 Y221.931260 Z-1.000000
G01 X490.151030 Y277.228140 Z-1.000000
G03 X489.773264 Y280.166110 Z-1.000000 I-11.613515 J-0.000000
G03 X488.994780 Y281.650015 Z-1.000000 I-3.595713 J-0.940222
G03 X487.660807 Y282.606381 Z-1.000000 I-2.635851 J-2.268058
G03 X485.666650 Y282.993765 Z-1.000000 I-1.994157 J-4.939025
G03 X484.288361 Y282.843881 Z-1.000000 I-0.000000 J-6.412100
G03 X482.401030 Y282.275015 Z-1.000000 I2.786218 J-12.659102
G03 X480.604454 Y281.454044 Z-1.000000 I5.210002 J-13.777599
G03 X478.760400 Y280.306265 Z-1.000000 I8.472388 J-15.667216
G01 X478.760400 Y221.931260 Z-1.000000
G01 X458.276030 Y221.931260 Z-1.000000
G00 Z5.000000

(End cutting path id: path7271)


(Start cutting path id: path7271)
(Change tool to Cylindrical cutter)

G00 Z5.000000
G00 X578.847530 Y220.650010

G01 Z-1.000000 F100.0(Penetrate)
G02 X570.975700 Y221.459667 Z-1.000000 I0.000000 J38.671460 F400.000000
G02 X565.019400 Y223.525010 Z-1.000000 I4.995930 J24.029346
G02 X559.938783 Y227.112075 Z-1.000000 I9.412395 J18.723002
G02 X556.191280 Y231.978140 Z-1.000000 I14.134308 J14.761321
G02 X553.975251 Y237.763265 Z-1.000000 I19.475608 J10.777250
G02 X553.113150 Y245.353140 Z-1.000000 I32.979303 J7.589875
G01 X553.113150 Y272.493770 Z-1.000000
G02 X553.984941 Y280.203907 Z-1.000000 I34.530199 J-0.000000
G02 X556.191280 Y285.931268 Z-1.000000 I21.059814 J-4.824175
G02 X559.936330 Y290.729503 Z-1.000000 I17.480990 J-9.783379
G02 X565.081900 Y294.306268 Z-1.000000 I14.559637 J-15.456024
G02 X571.098652 Y296.392081 Z-1.000000 I11.194165 J-22.569876
G02 X578.847530 Y297.196893 Z-1.000000 I7.748878 J-36.901429
G02 X586.834488 Y296.376713 Z-1.000000 I0.000000 J-39.298784
G02 X592.472530 Y294.368768 Z-1.000000 I-4.437933 J-21.380537
G02 X597.230461 Y290.869735 Z-1.000000 I-8.607106 J-16.688207
G02 X600.675650 Y286.056268 Z-1.000000 I-13.425439 J-13.248781
G02 X602.635214 Y280.369671 Z-1.000000 I-20.468410 J-10.234205
G02 X603.425650 Y272.493770 Z-1.000000 I-38.842508 J-7.875901
G01 X603.425650 Y257.650020 Z-1.000000
G01 X573.722530 Y257.650020 Z-1.000000
G01 X573.722530 Y243.431260 Z-1.000000
G03 X573.914740 Y240.651999 Z-1.000000 I20.189468 J0.000000
G03 X574.363150 Y238.821890 Z-1.000000 I9.147723 J1.271370
G03 X575.205515 Y237.197503 Z-1.000000 I6.484978 J2.332335
G03 X576.160030 Y236.259390 Z-1.000000 I3.018568 J2.116684
G03 X577.378069 Y235.698991 Z-1.000000 I2.417985 J3.651627
G03 X578.847530 Y235.493760 Z-1.000000 I1.469461 J5.158073
G03 X580.328871 Y235.680140 Z-1.000000 I-0.000000 J5.980029
G03 X581.597530 Y236.196890 Z-1.000000 I-1.247034 J4.877253
G03 X582.640058 Y237.060591 Z-1.000000 I-2.016042 J3.494498
G03 X583.519400 Y238.431260 Z-1.000000 I-4.425502 J3.806550
G03 X584.004803 Y240.025302 Z-1.000000 I-5.804769 J2.638541
G03 X584.222530 Y242.665640 Z-1.000000 I-15.900609 J2.640338
G01 X584.222530 Y250.478140 Z-1.000000
G01 X603.425650 Y250.478140 Z-1.000000
G01 X603.425650 Y243.306260 Z-1.000000
G02 X601.495402 Y232.917709 Z-1.000000 I-28.920599 J0.000000
G02 X596.894400 Y226.337510 Z-1.000000 I-15.584897 J5.998607
G02 X589.736007 Y222.325161 Z-1.000000 I-13.200055 J15.158305
G02 X578.847530 Y220.650010 Z-1.000000 I-10.888477 J34.549966
G01 X578.847530 Y220.650010 Z-1.000000
G00 Z5.000000

(End cutting path id: path7271)


(Start cutting path id: path7271)
(Change tool to Cylindrical cutter)

G00 Z5.000000
G00 X573.722530 Y267.368770

G01 Z-1.000000 F100.0(Penetrate)
G01 X584.222530 Y267.368770 Z-1.000000 F400.000000
G01 X584.222530 Y274.790640 Z-1.000000
G03 X584.001988 Y277.698895 Z-1.000000 I-19.285644 J-0.000000
G03 X583.519400 Y279.400018 Z-1.000000 I-7.007640 J-1.068969
G03 X582.615817 Y280.887940 Z-1.000000 I-5.453730 J-2.293608
G03 X581.597530 Y281.712518 Z-1.000000 I-2.577850 J-2.142397
G03 X580.334978 Y282.175671 Z-1.000000 I-2.370744 J-4.510195
G03 X578.722530 Y282.353143 Z-1.000000 I-1.612448 J-7.236353
G03 X577.259566 Y282.140059 Z-1.000000 I-0.000000 J-5.128643
G03 X576.097530 Y281.571893 Z-1.000000 I1.119906 J-3.762885
G03 X575.204730 Y280.654790 Z-1.000000 I1.962598 J-2.803711
G03 X574.363150 Y278.946893 Z-1.000000 I6.318812 J-4.174942
G03 X573.928493 Y277.068378 Z-1.000000 I8.525331 J-2.962163
G03 X573.722530 Y273.650020 Z-1.000000 I28.264194 J-3.418358
G01 X573.722530 Y267.368770 Z-1.000000
G00 Z5.000000

(End cutting path id: path7271)


(Start cutting path id: path7273)
(Change tool to Cylindrical cutter)

G00 Z5.000000
G00 X198.056240 Y68.331270

G01 Z-1.000000 F100.0(Penetrate)
G01 X198.056240 Y172.018750 Z-1.000000 F400.000000
G01 X220.962490 Y172.018750 Z-1.000000
G01 X220.962490 Y83.815640 Z-1.000000
G01 X244.774990 Y83.815640 Z-1.000000
G01 X244.774990 Y68.331270 Z-1.000000
G01 X198.056240 Y68.331270 Z-1.000000
G00 Z5.000000

(End cutting path id: path7273)


(Start cutting path id: path7273)
(Change tool to Cylindrical cutter)

G00 Z5.000000
G00 X266.791500 Y67.050020

G01 Z-1.000000 F100.0(Penetrate)
G02 X261.387339 Y67.800902 Z-1.000000 I-0.000000 J19.822552 F400.000000
G02 X257.307120 Y69.737520 Z-1.000000 I3.703133 J13.068623
G02 X253.948363 Y72.817091 Z-1.000000 I10.101328 J14.388500
G02 X251.557120 Y76.581270 Z-1.000000 I12.891011 J10.830804
G02 X250.107781 Y80.856749 Z-1.000000 I19.586608 J9.023031
G02 X249.635250 Y85.096890 Z-1.000000 I18.787656 J4.240141
G02 X250.416237 Y91.808405 Z-1.000000 I29.228659 J0.000000
G02 X252.385250 Y96.753140 Z-1.000000 I17.651079 J-4.164330
G02 X255.569366 Y101.091498 Z-1.000000 I21.802315 J-12.664037
G02 X259.619620 Y104.675020 Z-1.000000 I18.802220 J-17.170446
G02 X264.259711 Y107.597866 Z-1.000000 I27.434466 J-38.408356
G02 X269.479000 Y110.112520 Z-1.000000 I25.440393 J-46.129012
G02 X274.887659 Y112.273932 Z-1.000000 I69.154600 J-165.202656
G02 X280.104000 Y114.159390 Z-1.000000 I57.808033 J-151.774173
G01 X280.104000 Y121.581270 Z-1.000000
G03 X279.994479 Y123.488815 Z-1.000000 I-16.666724 J-0.000000
G03 X279.713370 Y124.971880 Z-1.000000 I-10.333757 J-1.190545
G03 X279.159028 Y126.342302 Z-1.000000 I-5.754774 J-1.530505
G03 X278.432120 Y127.268750 Z-1.000000 I-3.299900 J-1.840764
G03 X277.438062 Y127.852915 Z-1.000000 I-1.761063 J-1.858890
G03 X275.744620 Y128.112500 Z-1.000000 I-1.693442 J-5.393927
G03 X274.031520 Y127.875180 Z-1.000000 I0.000000 J-6.301682
G03 X272.979000 Y127.331250 Z-1.000000 I0.803939 J-2.845940
G03 X272.193007 Y126.454090 Z-1.000000 I2.266700 J-2.821843
G03 X271.635250 Y125.221880 Z-1.000000 I4.025893 J-2.564649
G03 X271.333801 Y123.865221 Z-1.000000 I12.516560 J-3.492994
G03 X271.135250 Y122.221880 Z-1.000000 I18.184405 J-3.030734
G01 X270.619620 Y116.846890 Z-1.000000
G01 X251.166500 Y117.612520 Z-1.000000
G02 X253.661907 Y130.093081 Z-1.000000 I42.745860 J-2.057005
G02 X258.260250 Y137.253130 Z-1.000000 I17.992173 J-6.498371
G02 X265.519469 Y141.661877 Z-1.000000 I13.050605 J-13.307760
G02 X277.666500 Y143.596880 Z-1.000000 I12.147031 J-37.159145
G02 X288.097759 Y141.731130 Z-1.000000 I0.000000 J-30.093044
G02 X294.494620 Y137.378130 Z-1.000000 I-5.561412 J-15.049345
G02 X298.498628 Y130.578580 Z-1.000000 I-14.872492 J-13.336552
G02 X300.057120 Y121.315640 Z-1.000000 I-26.748022 J-9.262940
G01 X300.057120 Y86.768770 Z-1.000000
G03 X300.110590 Y82.160834 Z-1.000000 I198.578832 J-0.000000
G03 X300.244620 Y78.690640 Z-1.000000 I112.745591 J2.616917
G03 X300.493832 Y75.241681 Z-1.000000 I129.055556 J7.591701
G03 X300.760250 Y72.675020 Z-1.000000 I71.728361 J6.148210
G03 X301.093700 Y70.128854 Z-1.000000 I608.075828 J78.339708
G03 X301.338370 Y68.331270 Z-1.000000 I303.327162 J40.370533
G01 X282.650870 Y68.331270 Z-1.000000
G03 X282.259005 Y71.266435 Z-1.000000 I-255.447901 J-32.610370
G03 X281.760250 Y74.721890 Z-1.000000 I-354.538544 J-49.409778
G03 X281.182274 Y78.174067 Z-1.000000 I-94.519574 J-14.050343
G03 X280.994620 Y78.831270 Z-1.000000 I-3.581819 J-0.667339
G02 X279.173433 Y74.533821 Z-1.000000 I-17.382149 J4.831643
G02 X276.182120 Y70.628140 Z-1.000000 I-17.287796 J10.142167
G02 X272.245493 Y68.053889 Z-1.000000 I-7.860144 J7.722848
G02 X266.791500 Y67.050020 Z-1.000000 I-5.453993 J14.313768
G01 X266.791500 Y67.050020 Z-1.000000
G00 Z5.000000

(End cutting path id: path7273)


(Start cutting path id: path7273)
(Change tool to Cylindrical cutter)

G00 Z5.000000
G00 X274.213370 Y81.128140

G01 Z-1.000000 F100.0(Penetrate)
G03 X275.463984 Y81.263204 Z-1.000000 I0.000000 J5.857526 F400.000000
G03 X276.572750 Y81.643770 Z-1.000000 I-1.086147 J4.969907
G03 X277.605147 Y82.246621 Z-1.000000 I-2.900438 J6.152504
G03 X278.557120 Y83.050020 Z-1.000000 I-4.269719 J6.025033
G03 X279.423009 Y83.974962 Z-1.000000 I-10.661346 J10.848448
G03 X280.104000 Y84.846890 Z-1.000000 I-8.789361 J7.566539
G01 X280.104000 Y105.065640 Z-1.000000
G03 X277.579152 Y103.477722 Z-1.000000 I33.575277 J-56.187199
G03 X275.354000 Y101.925020 Z-1.000000 I29.874747 J-45.183769
G03 X273.300273 Y100.208332 Z-1.000000 I12.539624 J-17.088351
G03 X271.650870 Y98.409390 Z-1.000000 I12.132696 J-12.779772
G03 X270.284047 Y96.394049 Z-1.000000 I12.410638 J-9.888176
G03 X269.275870 Y94.253140 Z-1.000000 I13.010972 J-7.434841
G03 X268.674234 Y91.978149 Z-1.000000 I11.463031 J-4.248520
G03 X268.447750 Y89.190640 Z-1.000000 I17.040726 J-2.787509
G03 X268.902850 Y85.630978 Z-1.000000 I14.148892 J-0.000000
G03 X269.979000 Y83.300020 Z-1.000000 I7.008847 J1.821930
G03 X271.823396 Y81.705321 Z-1.000000 I4.194735 J2.987600
G03 X274.213370 Y81.128140 Z-1.000000 I2.389974 J4.659573
G01 X274.213370 Y81.128140 Z-1.000000
G00 Z5.000000

(End cutting path id: path7273)


(Start cutting path id: path7273)
(Change tool to Cylindrical cutter)

G00 Z5.000000
G00 X312.484000 Y68.331270

G01 Z-1.000000 F100.0(Penetrate)
G01 X312.484000 Y172.018750 Z-1.000000 F400.000000
G01 X332.577750 Y172.018750 Z-1.000000
G01 X332.577750 Y114.534390 Z-1.000000
G01 X347.687130 Y142.315630 Z-1.000000
G01 X370.843380 Y142.315630 Z-1.000000
G01 X353.062130 Y111.971890 Z-1.000000
G01 X370.718380 Y68.331270 Z-1.000000
G01 X348.187130 Y68.331270 Z-1.000000
G01 X337.187130 Y103.534390 Z-1.000000
G01 X332.577750 Y96.487520 Z-1.000000
G01 X332.577750 Y68.331270 Z-1.000000
G01 X312.484000 Y68.331270 Z-1.000000
G00 Z5.000000

(End cutting path id: path7273)


(Start cutting path id: path7273)
(Change tool to Cylindrical cutter)

G00 Z5.000000
G00 X399.903530 Y67.050020

G01 Z-1.000000 F100.0(Penetrate)
G02 X392.031700 Y67.859677 Z-1.000000 I-0.000000 J38.671460 F400.000000
G02 X386.075400 Y69.925020 Z-1.000000 I4.995930 J24.029346
G02 X380.994784 Y73.512077 Z-1.000000 I9.412336 J18.722949
G02 X377.247280 Y78.378140 Z-1.000000 I14.134269 J14.761298
G02 X375.031251 Y84.163265 Z-1.000000 I19.475608 J10.777250
G02 X374.169150 Y91.753140 Z-1.000000 I32.979303 J7.589875
G01 X374.169150 Y118.893770 Z-1.000000
G02 X375.040940 Y126.603890 Z-1.000000 I34.530102 J0.000000
G02 X377.247280 Y132.331260 Z-1.000000 I21.059912 J-4.824200
G02 X380.992330 Y137.129495 Z-1.000000 I17.480990 J-9.783379
G02 X386.137900 Y140.706260 Z-1.000000 I14.559637 J-15.456024
G02 X392.154651 Y142.792070 Z-1.000000 I11.194161 J-22.569907
G02 X399.903530 Y143.596880 Z-1.000000 I7.748879 J-36.901495
G02 X407.890488 Y142.776701 Z-1.000000 I-0.000000 J-39.298853
G02 X413.528530 Y140.768760 Z-1.000000 I-4.437930 J-21.380561
G02 X418.286461 Y137.269727 Z-1.000000 I-8.607106 J-16.688207
G02 X421.731650 Y132.456260 Z-1.000000 I-13.425439 J-13.248781
G02 X423.691214 Y126.769663 Z-1.000000 I-20.468419 J-10.234209
G02 X424.481650 Y118.893770 Z-1.000000 I-38.842446 J-7.875893
G01 X424.481650 Y104.050020 Z-1.000000
G01 X394.778530 Y104.050020 Z-1.000000
G01 X394.778530 Y89.831270 Z-1.000000
G03 X394.970740 Y87.052008 Z-1.000000 I20.189513 J-0.000000
G03 X395.419150 Y85.221890 Z-1.000000 I9.147835 J1.271383
G03 X396.261515 Y83.597503 Z-1.000000 I6.484978 J2.332335
G03 X397.216030 Y82.659390 Z-1.000000 I3.018568 J2.116684
G03 X398.434068 Y82.098999 Z-1.000000 I2.417975 J3.651659
G03 X399.903530 Y81.893770 Z-1.000000 I1.469462 J5.158145
G03 X401.384873 Y82.080147 Z-1.000000 I-0.000000 J5.980114
G03 X402.653530 Y82.596890 Z-1.000000 I-1.247026 J4.877291
G03 X403.696059 Y83.460599 Z-1.000000 I-2.016096 J3.494542
G03 X404.575400 Y84.831270 Z-1.000000 I-4.425548 J3.806572
G03 X405.060803 Y86.425302 Z-1.000000 I-5.804685 J2.638520
G03 X405.278530 Y89.065640 Z-1.000000 I-15.900569 J2.640338
G01 X405.278530 Y96.878140 Z-1.000000
G01 X424.481650 Y96.878140 Z-1.000000
G01 X424.481650 Y89.706270 Z-1.000000
G02 X422.551400 Y79.317710 Z-1.000000 I-28.920622 J0.000000
G02 X417.950400 Y72.737520 Z-1.000000 I-15.584855 J5.998590
G02 X410.792007 Y68.725171 Z-1.000000 I-13.200055 J15.158305
G02 X399.903530 Y67.050020 Z-1.000000 I-10.888477 J34.549966
G01 X399.903530 Y67.050020 Z-1.000000
G00 Z5.000000

(End cutting path id: path7273)


(Start cutting path id: path7273)
(Change tool to Cylindrical cutter)

G00 Z5.000000
G00 X394.778530 Y113.768770

G01 Z-1.000000 F100.0(Penetrate)
G01 X405.278530 Y113.768770 Z-1.000000 F400.000000
G01 X405.278530 Y121.190640 Z-1.000000
G03 X405.057989 Y124.098875 Z-1.000000 I-19.285439 J0.000000
G03 X404.575400 Y125.800000 Z-1.000000 I-7.007675 J-1.068979
G03 X403.671816 Y127.287926 Z-1.000000 I-5.453724 J-2.293599
G03 X402.653530 Y128.112500 Z-1.000000 I-2.577823 J-2.142375
G03 X401.390978 Y128.575657 Z-1.000000 I-2.370748 J-4.510168
G03 X399.778530 Y128.753130 Z-1.000000 I-1.612448 J-7.236293
G03 X398.315566 Y128.540046 Z-1.000000 I0.000000 J-5.128643
G03 X397.153530 Y127.971880 Z-1.000000 I1.119906 J-3.762885
G03 X396.260729 Y127.054773 Z-1.000000 I1.962628 J-2.803735
G03 X395.419150 Y125.346880 Z-1.000000 I6.318820 J-4.174947
G03 X394.984493 Y123.468368 Z-1.000000 I8.525309 J-2.962160
G03 X394.778530 Y120.050020 Z-1.000000 I28.264041 J-3.418348
G01 X394.778530 Y113.768770 Z-1.000000
G00 Z5.000000

(End cutting path id: path7273)


(Start cutting path id: path7273)
(Change tool to Cylindrical cutter)

G00 Z5.000000
G00 X436.126000 Y68.331270

G01 Z-1.000000 F100.0(Penetrate)
G01 X436.126000 Y142.315630 Z-1.000000 F400.000000
G01 X456.985380 Y142.315630 Z-1.000000
G01 X456.985380 Y130.034380 Z-1.000000
G02 X460.928406 Y136.152644 Z-1.000000 I52.723919 J-29.649171
G02 X464.157250 Y139.815630 Z-1.000000 I21.952898 J-16.096442
G02 X468.105943 Y142.312822 Z-1.000000 I8.383213 J-8.885446
G02 X472.860380 Y143.206250 Z-1.000000 I4.754437 J-12.203810
G02 X473.890900 Y143.188333 Z-1.000000 I-0.000000 J-29.645282
G02 X474.657250 Y143.143750 Z-1.000000 I-0.571655 J-16.435041
G02 X475.411005 Y143.029785 Z-1.000000 I-0.452365 J-5.541507
G02 X476.063500 Y142.831250 Z-1.000000 I-0.965429 J-4.344433
G01 X476.063500 Y122.096880 Z-1.000000
G03 X474.632492 Y122.666900 Z-1.000000 I-6.600548 J-14.489121
G03 X472.922880 Y123.175000 Z-1.000000 I-6.930478 J-20.188847
G03 X471.188811 Y123.509936 Z-1.000000 I-3.363827 J-12.759203
G03 X469.282250 Y123.628130 Z-1.000000 I-1.906561 J-15.318087
G03 X465.843533 Y123.141636 Z-1.000000 I-0.000000 J-12.396288
G03 X462.626000 Y121.706270 Z-1.000000 I3.538886 J-12.256725
G03 X459.781564 Y119.526613 Z-1.000000 I9.930754 J-15.905370
G03 X456.985380 Y116.456270 Z-1.000000 I17.156306 J-18.432801
G01 X456.985380 Y68.331270 Z-1.000000
G01 X436.126000 Y68.331270 Z-1.000000
G00 Z5.000000

(End cutting path id: path7273)


(Start cutting path id: path7273)
(Change tool to Cylindrical cutter)

G00 Z5.000000
G00 X507.681270 Y67.050020

G01 Z-1.000000 F100.0(Penetrate)
G02 X498.322380 Y68.282727 Z-1.000000 I0.000000 J36.143375 F400.000000
G02 X491.478150 Y71.393770 Z-1.000000 I5.936410 J22.144082
G02 X486.048337 Y76.589347 Z-1.000000 I12.488558 J18.486682
G02 X480.931270 Y85.612520 Z-1.000000 I34.138801 J25.322749
G01 X495.134400 Y91.878140 Z-1.000000
G03 X497.538884 Y87.125553 Z-1.000000 I31.325962 J12.864248
G03 X499.931270 Y84.003140 Z-1.000000 I15.774521 J9.608676
G03 X502.972671 Y81.810116 Z-1.000000 I7.448921 J7.125055
G03 X506.009400 Y81.128140 Z-1.000000 I3.036729 J6.420046
G03 X508.332265 Y81.444767 Z-1.000000 I0.000000 J8.678899
G03 X509.665650 Y82.143770 Z-1.000000 I-0.957945 J3.448586
G03 X510.546078 Y83.331934 Z-1.000000 I-2.087656 J2.467229
G03 X510.884400 Y84.971890 Z-1.000000 I-3.805533 J1.639956
G03 X510.337341 Y87.695499 Z-1.000000 I-7.053458 J-0.000000
G03 X508.634400 Y90.346890 Z-1.000000 I-8.371791 J-3.504471
G03 X506.288655 Y92.666790 Z-1.000000 I-24.831637 J-22.762385
G03 X500.634400 Y97.518770 Z-1.000000 I-114.681333 J-127.923315
G01 X495.259400 Y101.987520 Z-1.000000
G02 X489.670259 Y107.252673 Z-1.000000 I49.346305 J57.981908
G02 X485.978150 Y111.659390 Z-1.000000 I30.794637 J29.550927
G02 X483.533901 Y116.638497 Z-1.000000 I13.155090 J9.547344
G02 X482.587520 Y123.237510 Z-1.000000 I22.533913 J6.599013
G02 X483.420806 Y128.996230 Z-1.000000 I20.315492 J0.000000
G02 X485.728150 Y133.862510 Z-1.000000 I16.689851 J-4.933332
G02 X489.354329 Y137.911487 Z-1.000000 I17.030123 J-11.603569
G02 X494.103150 Y141.034380 Z-1.000000 I14.656333 J-17.115033
G02 X499.505462 Y142.937586 Z-1.000000 I10.913458 J-22.359280
G02 X505.384400 Y143.596880 Z-1.000000 I5.878938 J-25.881667
G02 X514.095494 Y142.213359 Z-1.000000 I0.000000 J-28.115690
G02 X520.728150 Y138.596880 Z-1.000000 I-6.390342 J-19.610361
G02 X525.768343 Y132.877417 Z-1.000000 I-14.356824 J-17.732271
G02 X529.446900 Y124.518760 Z-1.000000 I-27.835631 J-17.238943
G01 X515.743770 Y118.378150 Z-1.000000
G03 X514.842479 Y120.755841 Z-1.000000 I-20.930528 J-6.574290
G03 X513.571900 Y123.237510 Z-1.000000 I-24.078942 J-10.761980
G03 X511.992458 Y125.531664 Z-1.000000 I-15.158340 J-8.745196
G03 X510.243770 Y127.331260 Z-1.000000 I-11.021063 J-8.959885
G03 X508.163984 Y128.580996 Z-1.000000 I-4.576801 J-5.261185
G03 X505.884400 Y129.003130 Z-1.000000 I-2.279584 J-5.943973
G03 X503.968799 Y128.674015 Z-1.000000 I0.000000 J-5.739402
G03 X502.618770 Y127.846880 Z-1.000000 I1.271067 J-3.589912
G03 X501.752218 Y126.561563 Z-1.000000 I2.456036 J-2.590614
G03 X501.415650 Y124.784380 Z-1.000000 I4.523758 J-1.777183
G03 X501.960724 Y122.569079 Z-1.000000 I4.774269 J-0.000000
G03 X504.165650 Y119.534400 Z-1.000000 I11.433762 J5.989136
G03 X507.006859 Y116.821641 Z-1.000000 I40.881808 J39.973324
G03 X511.775020 Y112.753150 Z-1.000000 I96.849672 J108.676865
G01 X517.025020 Y108.143770 Z-1.000000
G02 X520.163398 Y105.385782 Z-1.000000 I-58.669912 J-69.926458
G02 X523.290650 Y102.378150 Z-1.000000 I-66.657971 J-72.438728
G02 X526.114344 Y99.111462 Z-1.000000 I-21.044233 J-21.044165
G02 X528.353150 Y95.581270 Z-1.000000 I-22.370164 J-16.661903
G02 X529.803829 Y91.744169 Z-1.000000 I-13.896108 J-7.446429
G02 X530.337520 Y87.143770 Z-1.000000 I-19.560801 J-4.600399
G02 X529.460839 Y81.030941 Z-1.000000 I-21.749787 J0.000000
G02 X527.134400 Y76.206270 Z-1.000000 I-15.703181 J4.598781
G02 X523.448479 Y72.246501 Z-1.000000 I-16.324324 J11.499984
G02 X518.743770 Y69.346900 Z-1.000000 I-13.189525 J16.133905
G02 X513.446318 Y67.642197 Z-1.000000 I-10.613222 J23.897724
G02 X507.681270 Y67.050020 Z-1.000000 I-5.765048 J27.766293
G01 X507.681270 Y67.050020 Z-1.000000
G00 Z5.000000

(End cutting path id: path7273)


(Start cutting path id: path7273)
(Change tool to Cylindrical cutter)

G00 Z5.000000
G00 X544.922000 Y94.706270

G01 Z-1.000000 F100.0(Penetrate)
G01 X538.906370 Y171.753130 Z-1.000000 F400.000000
G01 X559.656370 Y171.753130 Z-1.000000
G01 X552.093870 Y94.706270 Z-1.000000
G01 X544.922000 Y94.706270 Z-1.000000
G00 Z5.000000

(End cutting path id: path7273)


(Start cutting path id: path7273)
(Change tool to Cylindrical cutter)

G00 Z5.000000
G00 X538.531370 Y68.331270

G01 Z-1.000000 F100.0(Penetrate)
G01 X538.531370 Y87.784390 Z-1.000000 F400.000000
G01 X558.234500 Y87.784390 Z-1.000000
G01 X558.234500 Y68.331270 Z-1.000000
G01 X538.531370 Y68.331270 Z-1.000000
G00 Z5.000000

(End cutting path id: path7273)


(Footer)
M5
G00 X0.0000 Y0.0000
M2
(Using default footer. To add your own footer create file "footer" in the output dir.)
(end)
%